X:36
T:MacAllan
C: J. Scott Skinner
R: strathspey
M:C
L:1/8
U: N=!tenuto!
Z: Jason R. Fruit <jason@gmail.com>
K:A
D | C<E {G}(A>NB) (c/B/).A/.G/ {G}A>c | d>ef>e (d/c/).B/.A/ G<B | (C<E) ([AA]>NB) (c/B/).A/.G/ A>a | f/g/a/f/ ea {cd}cA[AE] :|
g | {g}(a>NA) .c/.d/.e (f>.a)(e>a) | (d>a)(c>a) {Bc}B>A G<B | {g}(a>NA) .c/.d/.e (f>.a)(e>a) | d>fB>e {cd}c>A[AE]>g |
{g}(a>NA) .c/.d/.e (f>a)(e>a) | (d>a)(c>a) {Bc}B>AG<B | (3.A.B.c (3.d.c.B (3.c.d.e {g}a>g | (f/g/a) (e>a) {cd}cA[AE] |]

